X:1
T:Title
%%score { ( 1 3 ) | ( 2 4 ) }
L:1/8
Q:1/4=87
M:6/8
K:Bb
V:1 treble nm="Grand Piano"
V:3 treble 
V:2 bass 
V:4 bass 
V:1
 [DF][EG][FA] [DB][Ec][DB] | BAG A2 G | Fee edc | [Fd]6 | [DF][EG][FA] [DB][Ec][DB] | %5
w: James~McGranahan * * * * *|||||
[M:5/8] BAG A2 |[M:1/8] G |[M:3/4] Fe ee dc | [B,DB]6 | [FA][GB] [Ac]c dc | [Ac][GB] [^FA] [DGB]3 | %11
w: ||||||
 [C=EG][CFA] [CGB][_EGB] [EAc][EBd] | [Bd][Ac] [_A=B] [=Ac]3 | Ac cc BA | %14
w: |||
 [DFB][Fd] [Fd] [Fd]2 [Fd] | [Fc][DFB] [FA][=EB] [EA][CG] | [CF]6 | d4 z2 | dc G A3 | c4 z2 | %20
w: ||||||
 [=Ec][EB] [CE] [CF]3 | [DF][EG] [FA][DB] [Ec][DB] | BA G A2 G | Fe ee dc | [DB]6 |] %25
w: |||||
V:2
 [B,,B,][B,,B,][B,,B,] [B,,F,][B,,F,][B,,F,] | [F,DF][F,CF][F,B,F] [F,CE]2 [F,CE] | %2
 [F,CE][F,CF][F,CF] [F,CF][F,B,F][F,A,F] | B,3 z3 | [B,,B,][B,,B,][B,,B,] [B,,F,][B,,F,][B,,F,] | %5
[M:5/8] [F,DF][F,CF][F,B,F] [F,CE]2 |[M:1/8] [F,CE] | %7
[M:3/4] [F,CE][F,CF] [F,CF][F,A,F] [F,A,F][F,A,E] | B,,6 | F,F, F,[F,A,F] [F,B,F][F,A,F] | %10
 [D,D][D,D] [D,D] G,,3 | C,C, C,C, C,C, | [F,F][F,F] [F,F] [F,F]3 | %13
 [F,CF][F,A,F] [F,A,F][F,A,F] [F,DF][F,CF] | B,,[B,,B,] [B,,B,] [B,,B,]2 [B,,B,] | %15
 [C,A,]C, [C,C][C,C] [C,C][C,B,] | [F,A,]6 | [B,,B,][B,,B,] [B,,B,][B,,B,] [B,,B,][B,,B,] | %18
 [F,A,F][F,A,E] [F,B,E] [F,CE]3 | [F,A,E][F,A,] [F,A,][F,A,] [F,A,F][F,A,E] | %20
 [C,B,][C,G,] [C,B,] [F,A,]3 | [B,,B,][B,,B,] [B,,B,][B,,F,] [B,,F,][B,,F,] | %22
 [F,DF][F,CF] [F,B,F] [F,CE]2 [F,CE] | [F,CE][F,CF] [F,CF][F,A,F] [F,A,F][F,A,E] | [B,,B,]6 |] %25
V:3
 x6 | x6 | x6 | z3 F,3 | x6 |[M:5/8] x5 |[M:1/8] x |[M:3/4] x6 | x6 | x6 | x6 | x6 | x6 | x6 | x6 | %15
 x6 | x6 | FF FF [Ge][Fd] | x6 | z E EE dc | x6 | x6 | x6 | x6 | x6 |] %25
V:4
 x6 | x6 | x6 | B,,6 | x6 |[M:5/8] x5 |[M:1/8] x |[M:3/4] x6 | x6 | x6 | x6 | x6 | x6 | x6 | x6 | %15
 x6 | x6 | x6 | x6 | x6 | x6 | x6 | x6 | x6 | x6 |] %25

